components/brave_vpn/resources/panel/assets/svg-icons/guardian-logo.svg

<svg width="91" height="20" viewBox="0 0 91 20" fill="none" xmlns="http://www.w3.org/2000/svg">
<path fill-rule="evenodd" clip-rule="evenodd" d="M4.48908 15.956C5.62487 17.1705 6.76737 18.0447 7.63079 18.6187L8.4729 19.1496C8.70865 19.2941 9.10569 19.5365 9.3674 19.648L10.1933 20L11.8788 19.0255L11.8852 19.0217C12.4229 18.7049 13.151 18.2293 13.9527 17.5751C15.5511 16.2707 17.3977 14.2099 18.6613 11.2475L18.8958 10.567C19.1403 9.80179 19.6372 8.23464 19.6686 8.08757C19.9326 6.87168 20.0962 5.75186 20.0683 4.23025L20.0475 3.09362L19.2284 2.57716C12.2975 -2.04191 4.23929 0.585858 1.07654 2.47713C0.939936 2.55719 0.374615 2.90653 0.109043 3.07119L0.0782934 4.21204C-0.0684924 9.6595 2.19969 13.5079 4.48908 15.956ZM12.8174 16.1858C14.2573 15.0108 15.9807 13.1779 17.101 10.5515V10.311L17.0184 10.1929C14.1685 7.71036 11.558 7.35157 9.81344 7.50489C9.22044 7.557 8.72747 7.66825 8.35922 7.77539L8.03401 7.87004L8.15197 8.18593C8.25844 8.47096 8.44726 8.90611 8.67051 9.33396C8.70333 9.39682 8.73719 9.46018 8.77201 9.52343C8.97044 9.88396 9.19915 10.2413 9.42969 10.4801L9.5454 10.6L9.71015 10.5722C10.2228 10.4857 10.6612 10.4811 11.0338 10.5251C11.4722 10.5767 11.8193 10.6954 12.0887 10.8265C12.1638 10.863 12.2334 10.9008 12.2978 10.9387C12.449 11.028 12.5713 11.1184 12.6681 11.1968C12.6898 11.2143 12.7101 11.2312 12.7293 11.2475C11.4963 12.9683 10.4839 13.7975 10.0896 14.0794C6.52172 11.2078 5.55512 7.36243 5.35654 6.35739C8.77844 5.13089 11.2179 5.15243 13.0646 5.64089C14.3357 5.97711 15.3374 6.53521 16.2098 7.09464C16.2871 7.14421 16.3634 7.19382 16.4388 7.24329C16.5483 7.31511 16.6558 7.38664 16.7617 7.45739C16.8132 7.49179 16.8643 7.526 16.9151 7.55996C17.0917 7.67818 17.2639 7.79354 17.4334 7.90375L17.7639 8.18593L17.9145 7.70732C17.95 7.54379 17.9834 7.38325 18.0143 7.22414C18.0337 7.12461 18.0522 7.02564 18.0696 6.92682C18.1097 6.69975 18.1447 6.4735 18.1738 6.24332C18.2504 5.63907 18.2874 5.00764 18.2738 4.26304L18.2707 4.09411L18.1272 4.00368C9.98669 -1.12913 2.88694 3.45633 2.12283 3.94861C2.0984 3.96436 2.0334 3.99479 2.02222 4.00168L1.87708 4.09079L1.87254 4.26032C1.74119 9.13386 3.75544 12.5445 5.80044 14.7313C6.82158 15.8232 7.85058 16.6105 8.62501 17.1254C9.01515 17.3771 9.85065 17.904 10.0716 17.9981L10.9736 17.4766C11.446 17.1982 12.0971 16.7736 12.8174 16.1858Z" fill="white"/>
<path fill-rule="evenodd" clip-rule="evenodd" d="M30.3583 4C26.679 4 24.0714 6.48932 24.0714 10.0041C24.0714 13.6182 26.814 16 30.333 16C33.371 16 36.0714 13.8249 36.0714 10.1199C36.0714 9.83874 36.0545 9.55754 36.0124 9.25154H30.3414V11.3853H33.2191C32.89 12.7498 31.9111 13.4776 30.2318 13.4776C28.4765 13.4776 26.9744 12.2288 26.9744 10.0041C26.9744 7.98623 28.333 6.59683 30.2233 6.59683C31.3204 6.59683 32.1558 6.9938 32.7465 7.61406L34.755 5.67884C33.7254 4.62853 32.2318 4 30.3583 4ZM72.9286 5.57515C72.9286 6.3354 72.3934 6.85714 71.6354 6.85714C70.8848 6.85714 70.3571 6.3354 70.3571 5.57515C70.3571 4.81491 70.8774 4.28571 71.6354 4.28571C72.3934 4.28571 72.9286 4.80745 72.9286 5.57515ZM72.9286 8H70.3571V16H72.9286V8ZM57.4428 9.19629V8.00009H54.9286V16H57.4428V12.1036C57.4428 10.6856 58.4503 10.1707 59.4577 10.1707C59.8828 10.1277 60.4786 10.2637 60.6428 10.337V8.15851C60.4377 8.02706 59.8971 7.99811 59.6523 8.00009C58.7126 8.00009 57.8237 8.44371 57.4428 9.19629ZM53.7857 16V8H51.2768V8.94743C50.8244 8.41143 49.9771 8 48.8666 8C46.7608 8 45.2143 9.712 45.2143 12.008C45.2143 14.304 46.7608 16 48.8666 16C49.9771 16 50.8244 15.7625 51.2768 15.2185V16H53.7857ZM49.4835 10.24C50.4871 10.248 51.1863 10.968 51.1863 12.008C51.1863 13.048 50.4871 13.776 49.4835 13.776C48.48 13.776 47.7808 13.048 47.7808 12.008C47.7808 10.968 48.48 10.24 49.4835 10.24ZM82.3571 8V16H79.8483V15.2185C79.3957 15.7625 78.5486 16 77.438 16C75.3323 16 73.7857 14.304 73.7857 12.008C73.7857 9.712 75.3323 8 77.438 8C78.5486 8 79.3957 8.41143 79.8483 8.94743V8H82.3571ZM79.7577 12.008C79.7577 10.968 79.0586 10.248 78.0549 10.24C77.0514 10.24 76.3523 10.968 76.3523 12.008C76.3523 13.048 77.0514 13.776 78.0549 13.776C79.0586 13.776 79.7577 13.048 79.7577 12.008ZM69.2143 16V4.28571H66.7054V9.04914C66.2528 8.52086 65.4057 8.11537 64.2951 8.11537C62.1894 8.11537 60.6428 9.80269 60.6428 12.0656C60.6428 14.3285 62.1894 16 64.2951 16C65.4057 16 66.2528 15.766 66.7054 15.2298V16H69.2143ZM64.912 10.3231C65.9157 10.331 66.6148 11.0406 66.6148 12.0656C66.6148 13.0906 65.9157 13.8081 64.912 13.8081C63.9086 13.8081 63.2094 13.0906 63.2094 12.0656C63.2094 11.0406 63.9086 10.3231 64.912 10.3231ZM41.8464 12.3673V8H44.3571V12.5633C44.3571 14.5551 42.8666 16 40.603 16C38.3394 16 36.9286 14.5551 36.9286 12.6123V8H39.4393V12.3673C39.4393 13.1429 39.9414 13.6571 40.603 13.6571C41.3522 13.6571 41.8464 13.151 41.8464 12.3673ZM90.9286 10.9061V16H88.4663V11.6408C88.4663 10.7673 87.684 10.351 87.0674 10.351C86.4266 10.351 85.5586 10.7673 85.5586 11.6408V16H83.2143V8H85.5586V8.98774C86.1103 8.28571 87.1323 8 88.0489 8C89.5171 8 90.9286 9.03674 90.9286 10.9061Z" fill="white"/>
</svg>

<svg xmlns="http://www.w3.org/2000/svg" width="91" height="20" fill="none"><path fill="#fff" fill-rule="evenodd" d="M4.49 15.956a17.918 17.918 0 0 0 3.14 2.663l.843.53c.236.145.633.387.894.499l.826.352 1.686-.974.006-.004a16.738 16.738 0 0 0 2.068-1.447c1.598-1.304 3.445-3.365 4.708-6.327l.235-.681c.244-.765.741-2.332.773-2.48.264-1.215.427-2.335.4-3.857l-.021-1.136-.82-.517C12.298-2.042 4.24.586 1.077 2.477c-.137.08-.702.43-.968.594l-.03 1.141c-.147 5.447 2.12 9.296 4.41 11.744Zm8.327.23c1.44-1.175 3.164-3.008 4.284-5.634v-.241l-.083-.118c-2.85-2.483-5.46-2.841-7.205-2.688a7.591 7.591 0 0 0-1.454.27l-.325.095.118.316a10.988 10.988 0 0 0 .62 1.337c.198.361.427.718.658.957l.115.12.165-.028a4.654 4.654 0 0 1 1.324-.047 3.259 3.259 0 0 1 1.264.414 3.046 3.046 0 0 1 .431.309c-1.233 1.72-2.245 2.55-2.64 2.831-3.567-2.871-4.534-6.717-4.732-7.722 3.421-1.226 5.86-1.205 7.708-.716 1.27.336 2.272.894 3.145 1.454a26.136 26.136 0 0 1 .552.362l.153.103c.177.118.349.234.518.344l.33.282.151-.479a22.47 22.47 0 0 0 .156-.78 13.47 13.47 0 0 0 .204-2.664l-.003-.169-.144-.09c-8.14-5.133-15.24-.548-16.004-.055-.025.015-.09.046-.1.053l-.146.089-.004.17C1.74 9.133 3.755 12.544 5.8 14.73a16.128 16.128 0 0 0 2.825 2.394c.39.252 1.226.779 1.447.873l.902-.521a14.95 14.95 0 0 0 1.843-1.291ZM30.358 4c-3.679 0-6.287 2.49-6.287 6.004 0 3.614 2.743 5.996 6.262 5.996 3.038 0 5.738-2.175 5.738-5.88 0-.281-.017-.562-.059-.868h-5.67v2.133h2.877c-.329 1.365-1.308 2.093-2.987 2.093-1.755 0-3.258-1.25-3.258-3.474 0-2.018 1.359-3.407 3.25-3.407 1.096 0 1.932.397 2.522 1.017l2.009-1.935C33.725 4.629 32.232 4 30.358 4Zm42.57 1.575c0 .76-.535 1.282-1.293 1.282-.75 0-1.278-.522-1.278-1.282s.52-1.29 1.278-1.29 1.294.522 1.294 1.29Zm0 2.425h-2.57v8h2.57V8ZM57.444 9.196V8h-2.514v8h2.514v-3.896c0-1.418 1.007-1.933 2.015-1.933.425-.043 1.02.093 1.185.166V8.159c-.205-.132-.746-.16-.99-.159-.94 0-1.83.444-2.21 1.196ZM53.786 16V8h-2.51v.947C50.825 8.411 49.978 8 48.867 8c-2.105 0-3.652 1.712-3.652 4.008 0 2.296 1.547 3.992 3.653 3.992 1.11 0 1.957-.238 2.41-.781V16h2.509Zm-4.303-5.76c1.004.008 1.703.728 1.703 1.768s-.699 1.768-1.703 1.768c-1.003 0-1.702-.728-1.702-1.768s.699-1.768 1.703-1.768ZM82.358 8v8h-2.509v-.781c-.452.543-1.3.781-2.41.781-2.106 0-3.652-1.696-3.652-3.992C73.786 9.712 75.332 8 77.438 8c1.11 0 1.958.411 2.41.947V8h2.51Zm-2.6 4.008c0-1.04-.698-1.76-1.702-1.768-1.004 0-1.703.728-1.703 1.768s.7 1.768 1.703 1.768c1.004 0 1.703-.728 1.703-1.768ZM69.215 16V4.286h-2.509v4.763c-.452-.528-1.3-.934-2.41-.934-2.106 0-3.652 1.688-3.652 3.95 0 2.264 1.546 3.935 3.652 3.935 1.11 0 1.958-.234 2.41-.77V16h2.51Zm-4.302-5.677c1.004.008 1.703.718 1.703 1.743 0 1.025-.7 1.742-1.703 1.742-1.003 0-1.703-.717-1.703-1.742s.7-1.743 1.703-1.743Zm-23.066 2.044V8h2.511v4.563c0 1.992-1.49 3.437-3.754 3.437-2.264 0-3.674-1.445-3.674-3.388V8h2.51v4.367c0 .776.502 1.29 1.164 1.29.75 0 1.243-.506 1.243-1.29Zm49.083-1.46V16h-2.463v-4.36c0-.873-.782-1.289-1.399-1.289-.64 0-1.508.416-1.508 1.29V16h-2.345V8h2.345v.988C86.11 8.286 87.132 8 88.049 8c1.468 0 2.88 1.037 2.88 2.906Z" clip-rule="evenodd"/></svg>
